X: 31582
T: Palm Sunday
R: slide
M: 12/8
K: Adorian
B|:AGE FGE|FGE FGE|A2B c2d|e2d efg|
~e3 dBA|BAG Bcd|edc BAG|B2A A2B:|
a3 efg|a3 bge|g3 gfe|dBA GB/c/d|
[1 efg ded|BAG Bcd|edc BAG|B2A A2B:|
[2 e2g ded|BAG Bcd|edc BAG|B2a A2b||

